X: 031502
T: Clare Reel
T: R\'il an Chl\'air
S: B.Breathnach: "Ceol Rince na hEireann" II/138 
Z: B.Black
L: 1/8
M: 4/4
R: reel
K: G
D3E FGAF|G2 G2 BGAF|D2 DE FGAG|1 Addc AGGF :|2 Addc AG G2||
Bcde fgaf|g2 g2 gbaf|d3e fgag|fdcA AG G2 :|
